zondicons/svg/folder-outline.svg

<svg width="20px" height="20px" viewBox="0 0 20 20" version="1.1" xmlns="http://www.w3.org/2000/svg" xmlns:xlink="http://www.w3.org/1999/xlink"><title>folder-outline</title><desc>Created with Sketch.</desc><defs></defs><g id="Page-1" stroke="none" stroke-width="1" fill="none" fill-rule="evenodd"><g id="folder-outline" fill="#000000"><path d="M0,3.99406028 C0,2.8927712 0.895857811,2 1.9973917,2 L9,2 L11,4 L18.0026083,4 C19.1057373,4 20,4.89706013 20,6.00585866 L20,15.9941413 C20,17.1019465 19.1017876,18 18.0092049,18 L1.99079514,18 C0.891309342,18 0,17.1054862 0,16.0059397 L0,3.99406028 Z M2,6 L18,6 L18,16 L2,16 L2,6 Z"></path></g></g></svg>

<svg xmlns="http://www.w3.org/2000/svg" viewBox="0 0 20 20"><path d="M0 4c0-1.1.9-2 2-2h7l2 2h7a2 2 0 0 1 2 2v10a2 2 0 0 1-2 2H2a2 2 0 0 1-2-2V4zm2 2v10h16V6H2z"/></svg>
